build/img/svg/icon-waterproof.svg

<svg width="16" height="16" viewBox="0 0 16 16" fill="none" xmlns="http://www.w3.org/2000/svg">
<path d="M8.66888 6.22495C8.81647 6.0355 8.9472 5.86232 9.0837 5.69331C9.20169 5.54767 9.33448 5.53682 9.44589 5.67829C10.0568 6.45447 10.662 7.23399 11.1039 8.1291C11.4579 8.84478 11.4707 9.54793 11.046 10.2331C10.2003 11.5977 8.24172 11.5497 7.44949 10.1459C7.39769 10.0537 7.34589 10.0182 7.23859 10.0186C6.02332 10.0253 5.06212 9.03423 5.13159 7.80319C5.14927 7.48938 5.2833 7.16847 5.41938 6.8772C5.77788 6.10644 6.29465 5.43709 6.8065 4.76732C6.87269 4.68093 6.93929 4.59539 7.00672 4.50984C7.1465 4.33249 7.28545 4.32456 7.41784 4.50567C7.80593 5.02855 8.18704 5.55727 8.56897 6.0839C8.60186 6.12689 8.62982 6.16862 8.66888 6.22495ZM9.27446 6.15526C9.21197 6.23497 9.16592 6.29089 9.12275 6.34847C8.6401 6.98903 8.15456 7.62918 7.8195 8.36613C7.72042 8.58396 7.62668 8.82516 7.61764 9.06052C7.57653 10.1756 8.60433 11.0039 9.67324 10.7393C10.6233 10.5044 11.1784 9.44068 10.8326 8.59815C10.4601 7.69386 9.864 6.94063 9.27322 6.15526H9.27446ZM7.21885 9.57714C7.20748 9.5242 7.19979 9.47052 7.19583 9.41648C7.19583 9.21451 7.1761 9.00878 7.20981 8.81223C7.28874 8.35319 7.51321 7.95467 7.75125 7.56575C7.95065 7.23941 8.16649 6.92352 8.39137 6.57799L7.22543 4.93382C6.66055 5.67495 6.12116 6.38144 5.74046 7.19476C5.59123 7.514 5.51065 7.84116 5.57602 8.20505C5.7084 8.9683 6.43649 9.5955 7.21968 9.57673L7.21885 9.57714Z" fill="white"/>
<path d="M9.2115 10.4573C8.557 10.4486 7.94607 9.81426 7.95306 9.15033C7.95306 8.98591 8.03529 8.88326 8.16643 8.8795C8.29758 8.87575 8.37199 8.97131 8.38392 9.14198C8.41105 9.62063 8.76173 9.97993 9.23905 10.0183C9.40349 10.0317 9.49641 10.1181 9.48572 10.2495C9.47503 10.381 9.37184 10.4594 9.2115 10.4573Z" fill="white"/>
<path d="M7.72103 16C7.14957 15.8994 6.68665 15.5622 6.19988 15.2806C5.55319 14.905 4.90362 14.5394 4.26762 14.1468C2.87639 13.2867 2.05415 12.0277 1.78157 10.404C1.73627 10.1056 1.71536 9.80402 1.71908 9.50218C1.71387 7.40955 1.71292 5.31678 1.7162 3.22387C1.7162 2.55619 2.0451 2.23361 2.70289 2.19188C4.24418 2.09465 5.68105 1.67776 6.91647 0.69293C7.08092 0.561063 7.23344 0.412086 7.38597 0.265196C7.75104 -0.0870076 8.25425 -0.0911804 8.61316 0.269369C9.58341 1.2446 10.7711 1.78167 12.0941 2.03497C12.5262 2.11844 12.9673 2.15558 13.406 2.19814C13.9516 2.25114 14.2776 2.59458 14.2796 3.15001C14.2821 3.85274 14.2796 4.55548 14.2796 5.25822C14.2796 5.46687 14.1974 5.57412 14.042 5.57495C13.8866 5.57578 13.8019 5.46729 13.8019 5.26197C13.8019 4.56925 13.8019 3.87681 13.8019 3.18464C13.8019 2.83077 13.7028 2.70808 13.3612 2.68388C12.467 2.61878 11.5901 2.47147 10.7456 2.15891C9.83337 1.82132 9.00866 1.33808 8.31592 0.638681C8.1046 0.425857 7.90151 0.420432 7.69924 0.62491C6.67144 1.65398 5.41464 2.22568 4.01601 2.49985C3.54405 2.59207 3.06139 2.6288 2.58285 2.68597C2.3333 2.7156 2.19845 2.84788 2.19845 3.10035C2.19845 5.37548 2.16515 7.65145 2.21654 9.92533C2.24696 11.2536 2.84966 12.3595 3.83142 13.2441C4.33915 13.7032 4.95296 13.9911 5.53017 14.3383C6.05476 14.6542 6.58757 14.9555 7.11504 15.2672C7.70322 15.6152 8.29139 15.6169 8.87957 15.2722C9.72771 14.7752 10.5812 14.2866 11.4244 13.7808C12.742 12.9904 13.5133 11.8161 13.7592 10.2892C13.7922 10.0365 13.806 9.78164 13.8003 9.5268C13.8048 8.55324 13.8023 7.57967 13.8023 6.60569C13.8023 6.56938 13.8023 6.53308 13.8023 6.49635C13.8068 6.31149 13.9022 6.19381 14.0453 6.19631C14.1884 6.19882 14.2805 6.31191 14.2796 6.48843C14.2731 7.69109 14.315 8.89668 14.2418 10.0948C14.1596 11.4339 13.5787 12.5756 12.5973 13.4803C12.2516 13.7991 11.8487 14.062 11.4462 14.3108C10.7333 14.7523 9.99864 15.1583 9.27918 15.589C8.96876 15.7807 8.62946 15.9194 8.27481 15.9996L7.72103 16Z" fill="white"/>
<path d="M13.0244 6.91012C13.0244 7.83695 13.0433 8.76378 13.0199 9.68977C12.9841 11.1003 12.3752 12.2207 11.2085 12.9806C10.304 13.5703 9.35062 14.084 8.41697 14.6281C8.1703 14.7717 7.89896 14.8042 7.65146 14.6603C6.61133 14.0556 5.54611 13.483 4.55326 12.8037C3.63194 12.174 3.139 11.2179 3.00416 10.0941C2.97821 9.83071 2.96764 9.56595 2.9725 9.30126C2.9688 8.35899 2.9725 7.41672 2.97003 6.47445C2.97003 6.36053 2.99634 6.25412 3.11063 6.22658C3.18505 6.20863 3.2981 6.21698 3.34662 6.26372C3.40294 6.31797 3.42884 6.42688 3.43131 6.5141C3.43665 7.51896 3.42679 8.52383 3.43665 9.52869C3.45022 10.9392 4.05333 12.0125 5.26121 12.7261C6.08961 13.216 6.92255 13.698 7.75178 14.1866C7.91293 14.2813 8.06793 14.2901 8.23073 14.1941C9.11834 13.6725 10.0199 13.1738 10.8915 12.6267C11.976 11.9457 12.538 10.925 12.5557 9.63844C12.5808 7.77477 12.5607 5.91068 12.5652 4.04659C12.5652 3.91097 12.515 3.86673 12.3917 3.84962C10.8245 3.63513 9.37776 3.111 8.11027 2.13159C8.02311 2.0644 7.96679 2.07108 7.88333 2.13534C6.7322 3.0242 5.4273 3.53831 4.01181 3.78828C3.87039 3.8129 3.72855 3.83543 3.58589 3.85171C3.47324 3.86506 3.43049 3.91597 3.43213 4.03532C3.43871 4.45262 3.43501 4.86993 3.4346 5.28473C3.4346 5.4771 3.34744 5.58184 3.19491 5.57684C3.04855 5.57266 2.97167 5.47418 2.97126 5.28473C2.97126 4.8524 2.97126 4.42021 2.97126 3.98817C2.97126 3.63263 3.16696 3.42856 3.52052 3.38183C4.71771 3.22242 5.8524 2.86854 6.89171 2.238C7.14661 2.0836 7.38835 1.90416 7.63173 1.73098C7.88292 1.54987 8.11151 1.53902 8.35325 1.72555C9.53152 2.63569 10.8693 3.14438 12.3263 3.35721L12.5241 3.38725C12.8394 3.43691 13.024 3.65057 13.0244 3.97523C13.026 4.95394 13.026 5.93266 13.0244 6.91137V6.91012Z" fill="white"/>
</svg>

<svg width="16" height="16" fill="none" xmlns="http://www.w3.org/2000/svg"><path d="M8.669 6.225c.147-.19.278-.363.415-.532.118-.145.25-.156.362-.015.61.776 1.216 1.556 1.658 2.451.354.716.367 1.419-.058 2.104a2.077 2.077 0 01-3.597-.087c-.051-.092-.103-.128-.21-.127a2.081 2.081 0 01-2.107-2.216c.017-.314.151-.635.287-.926.359-.77.876-1.44 1.388-2.11.066-.086.132-.172.2-.257.14-.178.278-.185.41-.004.389.523.77 1.051 1.152 1.578.033.043.06.085.1.141zm.605-.07c-.062.08-.108.136-.151.193-.483.641-.968 1.281-1.303 2.018-.1.218-.193.46-.202.695a1.658 1.658 0 002.055 1.678c.95-.235 1.505-1.298 1.16-2.14-.373-.905-.969-1.658-1.56-2.444h.001zM7.22 9.577a1.174 1.174 0 01-.023-.16c0-.202-.02-.408.014-.605.079-.459.303-.857.541-1.246.2-.327.415-.642.64-.988L7.225 4.934c-.564.74-1.104 1.447-1.485 2.26-.149.32-.23.647-.164 1.011.132.763.86 1.39 1.644 1.372h-.001z" fill="#fff"/><path d="M9.211 10.457c-.654-.008-1.265-.643-1.258-1.307 0-.164.082-.267.213-.27.132-.004.206.091.218.262a.912.912 0 00.855.876c.164.014.257.1.247.231-.011.132-.114.21-.275.208z" fill="#fff"/><path d="M7.721 16c-.571-.1-1.034-.438-1.521-.72-.647-.375-1.296-.74-1.932-1.133-1.392-.86-2.214-2.12-2.486-3.743a5.552 5.552 0 01-.063-.902c-.005-2.092-.006-4.185-.003-6.278 0-.668.33-.99.987-1.032 1.541-.097 2.978-.514 4.213-1.5.165-.13.317-.28.47-.427.365-.352.868-.356 1.227.004.97.976 2.158 1.513 3.481 1.766.432.083.873.12 1.312.163.546.053.872.397.874.952.002.703 0 1.405 0 2.108 0 .209-.083.316-.238.317-.155 0-.24-.108-.24-.313V3.185c0-.354-.1-.477-.44-.501-.895-.065-1.772-.213-2.616-.525-.913-.338-1.737-.82-2.43-1.52C8.105.426 7.902.42 7.699.625 6.671 1.654 5.415 2.225 4.016 2.5c-.472.092-.955.129-1.433.186-.25.03-.385.162-.385.414 0 2.275-.033 4.551.019 6.825.03 1.329.633 2.434 1.614 3.32.508.458 1.122.746 1.7 1.093.524.316 1.057.618 1.584.93.588.347 1.176.349 1.765.004.848-.497 1.701-.985 2.544-1.491 1.318-.79 2.09-1.965 2.335-3.492a5.02 5.02 0 00.041-.762c.005-.974.002-1.947.002-2.921v-.11c.005-.185.1-.302.243-.3.143.003.236.116.235.292-.007 1.203.035 2.409-.038 3.607-.082 1.339-.663 2.48-1.645 3.385-.345.32-.748.582-1.15.83-.714.442-1.448.848-2.168 1.279-.31.192-.65.33-1.004.41L7.72 16z" fill="#fff"/><path d="M13.024 6.91c0 .927.02 1.854-.004 2.78-.036 1.41-.645 2.53-1.811 3.29-.905.59-1.858 1.104-2.792 1.648-.247.144-.518.176-.766.032-1.04-.604-2.105-1.177-3.098-1.856-.921-.63-1.414-1.586-1.549-2.71a6.811 6.811 0 01-.031-.793c-.004-.942 0-1.884-.003-2.827 0-.113.026-.22.14-.247.075-.018.188-.01.237.037.056.054.082.163.084.25.006 1.005-.004 2.01.006 3.015.013 1.41.616 2.483 1.824 3.197.829.49 1.662.972 2.49 1.46.162.095.317.104.48.008.887-.522 1.789-1.02 2.66-1.567 1.085-.681 1.647-1.702 1.665-2.989.025-1.863.005-3.727.01-5.591 0-.136-.051-.18-.174-.197-1.567-.215-3.014-.739-4.282-1.718-.087-.068-.143-.06-.227.003-1.15.89-2.456 1.403-3.871 1.653a7.332 7.332 0 01-.426.064c-.113.013-.156.064-.154.183.007.418.003.835.003 1.25 0 .192-.088.297-.24.292-.146-.004-.223-.103-.224-.292V3.988c0-.355.196-.56.55-.606 1.197-.16 2.331-.513 3.37-1.144.256-.154.497-.334.74-.507.252-.181.48-.192.722-.005 1.179.91 2.516 1.418 3.973 1.631l.198.03c.315.05.5.264.5.588.002.979.002 1.958 0 2.936z" fill="#fff"/></svg>
